vectors/youtube/youtube.svg

<svg version="1.1" xmlns="http://www.w3.org/2000/svg" xmlns:xlink="http://www.w3.org/1999/xlink" viewBox="0 0 256 180">
    <defs>
        <linearGradient id="linearGradient-1" x1="49.9804764%" x2="49.9804764%" y1="8.68053889e-07%" y2="100.030167%">
            <stop offset="0%" stop-color="#E52D27" />
            <stop offset="100%" stop-color="#BF171D" />
        </linearGradient>
    </defs>
    <g>
        <g>
            <path d="M101.6,123.2 L170.8,87.4 L101.6,51.3 L101.6,123.2 L101.6,123.2 Z" fill="#FFFFFF" />
            <path d="M101.6,51.3 L162.3,91.8 L170.8,87.4 L101.6,51.3 L101.6,51.3 Z" fill="#420000" opacity="0.12" />
            <path d="M253.301054,38.8 C253.301054,38.8 250.80203,21.2 243.105037,13.4 C233.408825,3.2 222.513081,3.2 217.415072,2.6 C181.729012,0 128.04998,0 128.04998,0 L127.95002,0 C127.95002,0 74.2709879,0 38.3850059,2.6 C33.3869582,3.2 22.4912144,3.2 12.695041,13.4 C5.09800859,21.2 2.59898477,38.8 2.59898477,38.8 C2.59898477,38.8 0,59.6 0,80.3 L0,99.7 C0,120.4 2.59898477,141.1 2.59898477,141.1 C2.59898477,141.1 5.09800859,158.7 12.795002,166.5 C22.4912144,176.7 35.2862163,176.4 40.9839906,177.4 C61.4759859,179.4 127.95002,180 127.95002,180 C127.95002,180 181.729012,179.9 217.515033,177.3 C222.513081,176.7 233.408825,176.7 243.204998,166.5 C250.901991,158.7 253.401015,141.1 253.401015,141.1 C253.401015,141.1 256,120.4 256,99.7 L256,80.3 C255.900039,59.6 253.301054,38.8 253.301054,38.8 L253.301054,38.8 Z M101.560328,123.2 L101.560328,51.3 L170.733307,87.4 L101.560328,123.2 L101.560328,123.2 Z" fill="url(#linearGradient-1)" />
        </g>
    </g>
</svg>

<svg xmlns="http://www.w3.org/2000/svg" viewBox="0 0 256 180"><defs><linearGradient id="a" x1="49.98%" x2="49.98%" y1="0%" y2="100.03%"><stop offset="0%" stop-color="#E52D27"/><stop offset="100%" stop-color="#BF171D"/></linearGradient></defs><path d="M101.6 123.2l69.2-35.8-69.2-36.1v71.9z" fill="#FFF"/><path d="M101.6 51.3l60.7 40.5 8.5-4.4-69.2-36.1z" fill="#420000" opacity=".12"/><path d="M253.301 38.8s-2.499-17.6-10.196-25.4c-9.696-10.2-20.592-10.2-25.69-10.8C181.73 0 128.05 0 128.05 0h-.1S74.271 0 38.385 2.6c-4.998.6-15.894.6-25.69 10.8C5.098 21.2 2.599 38.8 2.599 38.8S0 59.6 0 80.3v19.4c0 20.7 2.599 41.4 2.599 41.4s2.499 17.6 10.196 25.4c9.696 10.2 22.491 9.9 28.189 10.9 20.492 2 86.966 2.6 86.966 2.6s53.779-.1 89.565-2.7c4.998-.6 15.894-.6 25.69-10.8 7.697-7.8 10.196-25.4 10.196-25.4S256 120.4 256 99.7V80.3c-.1-20.7-2.699-41.5-2.699-41.5zm-151.74 84.4V51.3l69.172 36.1-69.173 35.8z" fill="url(#a)"/></svg>
